resources/svg/major-cash-dollar.svg

<svg xmlns="http://www.w3.org/2000/svg" viewBox="0 0 20 20" fill="currentColor"><path d="M10 20c-5.514 0-10-4.486-10-10s4.486-10 10-10 10 4.486 10 10-4.486 10-10 10zm1-15a1 1 0 1 0-2 0v.17a3 3 0 0 0-2 2.83c0 1.013.36 1.77 1.025 2.269.54.405 1.215.572 1.666.685l.066.016c.55.138.835.224 1.018.361.085.064.225.182.225.669a1 1 0 0 1-.984 1 1.611 1.611 0 0 1-.325-.074 2.533 2.533 0 0 1-.984-.633 1 1 0 0 0-1.414 1.414 4.548 4.548 0 0 0 1.707 1.097v.196a1 1 0 1 0 2 0v-.17a3 3 0 0 0 2-2.83c0-1.013-.36-1.77-1.025-2.269-.54-.405-1.215-.572-1.666-.685l-.066-.016c-.55-.138-.835-.224-1.018-.361-.085-.064-.225-.182-.225-.669a1 1 0 0 1 .984-1 1.618 1.618 0 0 1 .325.074c.245.081.606.255.984.633a1 1 0 1 0 1.414-1.414 4.547 4.547 0 0 0-1.707-1.097v-.196z"/></svg>

<svg xmlns="http://www.w3.org/2000/svg" viewBox="0 0 20 20" fill="currentColor"><path d="M10 20C4.486 20 0 15.514 0 10S4.486 0 10 0s10 4.486 10 10-4.486 10-10 10zm1-15a1 1 0 1 0-2 0v.17A3 3 0 0 0 7 8c0 1.013.36 1.77 1.025 2.269.54.405 1.215.572 1.666.685l.066.016c.55.138.835.224 1.018.361.085.064.225.182.225.669a1 1 0 0 1-.984 1 1.611 1.611 0 0 1-.325-.074 2.533 2.533 0 0 1-.984-.633 1 1 0 0 0-1.414 1.414A4.548 4.548 0 0 0 9 14.804V15a1 1 0 1 0 2 0v-.17A3 3 0 0 0 13 12c0-1.013-.36-1.77-1.025-2.269-.54-.405-1.215-.572-1.666-.685l-.066-.016c-.55-.138-.835-.224-1.018-.361C9.14 8.605 9 8.487 9 8a1 1 0 0 1 .984-1 1.618 1.618 0 0 1 .325.074c.245.081.606.255.984.633a1 1 0 1 0 1.414-1.414A4.547 4.547 0 0 0 11 5.196V5z"/></svg>
